X: 32
T: Missa De plus en plus / Agnus Dei
N: Derived from Ock1005e-Missa_De_plus_en_plus-Agnus.krn
C: Johannes Ockeghem
%%abc-version 2.0
%%abcx-abcm2ps-target-version 5.9.1 (29 Sep 2008)
%%abc-creator hum2abc beta
%%abcx-conversion-date 2019/02/17 07:26:14
%%abc-edited-by Jesse Rodin
%%abc-edited-by Will Watson 16/1/2012
%%abcx-initial-encoding-date 2012/01/16/
%%humdrum-veritas 1679354087
%%humdrum-veritas-data 2189195775
%%linebreak <none>
%%barnumbers 0
L: 1/4
M: 3/1
Q: 1/2=120
%%staves [1 2 3 4]
V: 1 clef=treble
V: 2 clef=treble-8
V: 3 clef=treble-8
V: 4 clef=bass
K: C
[V:1] G6F2E3D | 
[V:2] d8g4 | 
[V:3] G12 | 
[V:4] G,8B,4 | 
[V:1] D4G8 | 
[V:2] g6f2d4 | 
[V:3] B12 | 
[V:4] B,2D4C2B,4 | 
[V:1] A4c6BA | 
[V:2] e8f4 | 
[V:3] c12 | 
[V:4] A,6G,2F,4 | 
[V:1] G4z2A2G2E2 | 
[V:2] z2g2e2c6 | 
[V:3] e12 | 
[V:4] E,4C,8 | 
[V:1] F2A2B2d3cA2 | 
[V:2] B2A2d3cA4 | 
[V:3] d4B2A4d2- | 
[V:4] D,12 | 
[V:1] c2B3GG3E^F2 | 
[V:2] A2G4B2A2c2 | 
[V:3] dcd2G4A4 | 
[V:4] z4z2D4C2 | 
[V:1] G4B4c4 | 
[V:2] B2G2z2g4f2 | 
[V:3] G8z4 | 
[V:4] E2D2G,4A,4 | 
[V:1] d2e4c4B2 | 
[V:2] a2g2c4d4 | 
[V:3] z12 | 
[V:4] F,2C4A,2G,4 | 
[V:1] c4G2A3GE2 | 
[V:2] g2a2g2e6 | 
[V:3] c12- | 
[V:4] C,12- | 
[V:1] F2G2C4E4 | 
[V:2] c2e3fg4e2- | 
[V:3] c12- | 
[V:4] C,12- | 
[V:1] G6A3GE2 | 
[V:2] e6c2A2c2 | 
[V:3] c12 | 
[V:4] C,12 | 
[V:1] D8G4 | 
[V:2] G8z4 | 
[V:3] B12- | 
[V:4] z2G,,4G,4E,2 | 
[V:1] F4E2C4c2 | 
[V:2] d4e4c3d | 
[V:3] B4c4A4 | 
[V:4] D,4C,4F,4 | 
[V:1] B2A4G4^F2 | 
[V:2] e2f4d4c2 | 
[V:3] z2d2c2B2A4 | 
[V:4] G,2D,2F,2G,2A,2C2 | 
[V:1] G8z4 | 
[V:2] d4z4z4 | 
[V:3] G4z2G6- | 
[V:4] B,2CDE3DC2B,2 | 
[V:1] z12 | 
[V:2] z12 | 
[V:3] G2F2G2A4G2- | 
[V:4] A,4G,4F,2G,E,- | 
[V:1] z12 | 
[V:2] z12 | 
[V:3] GED2G3F/E/D4 | 
[V:4] E,D,/C,/B,,2C,G,,2A,,B,,C,D,B,, | 
[V:1] z4z4G3A | 
[V:2] z4G3AB2c2- | 
[V:3] C8z4 | 
[V:4] C,8z4 | 
[V:1] B2c3BAGc2A2 | 
[V:2] cBAGc2d2e2f2 | 
[V:3] z12 | 
[V:4] z12 | 
[V:1] d6B2G2c2- | 
[V:2] d2g6e2c2 | 
[V:3] z12 | 
[V:4] z12 | 
[V:1] cB/A/B3AA4^G2 | 
[V:2] d6c2B4 | 
[V:3] z12 | 
[V:4] z12 | 
[V:1] A4G2F2E4 | 
[V:2] A3Bc2d2e2c2 | 
[V:3] z4z4c4 | 
[V:4] z12 | 
[V:1] D4z4E4 | 
[V:2] d3cBAA4G2 | 
[V:3] B6c6 | 
[V:4] z2G,4F,2E,4 | 
[V:1] F3GA2c3BG2 | 
[V:2] A3DF2E4D2 | 
[V:3] d6G6 | 
[V:4] D,4z2C,4B,,2 | 
[V:1] A4B4z4 | 
[V:2] C2D6G3A | 
[V:3] F4z2G4F2 | 
[V:4] A,,4G,,4z4 | 
[V:1] G4A3F2ED2 | 
[V:2] B2c2d3cA4 | 
[V:3] E4D4D3E | 
[V:4] z4D,3E,F,3G, | 
[V:1] C4F3GA2_B2- | 
[V:2] z4c3de2f2- | 
[V:3] F3GA3Bc2d2- | 
[V:4] A,4z4z4 | 
[V:1] BAd4c4B2 | 
[V:2] f4g2f2g4 | 
[V:3] d4B2c2d4 | 
[V:4] D,4G,2A,2G,4 | 
[V:1] c6A4GF | 
[V:2] e4c3BA4 | 
[V:3] c12- | 
[V:4] z2A,4F,4E,2 | 
[V:1] E12 ||  
[V:2] G12 ||  
[V:3] c12 ||  
[V:4] C,12 ||  
[V:1] [M:2/1]c8 | 
[V:2] [M:2/1]c8- | 
[V:3] [M:2/1]z8 | 
[V:4] [M:2/1]z8 | 
[V:1] A4G4 | 
[V:2] c8 | 
[V:3] z8 | 
[V:4] z8 | 
[V:1] c6d2 | 
[V:2] A8 | 
[V:3] z8 | 
[V:4] z8 | 
[V:1] B8 | 
[V:2] G8 | 
[V:3] z8 | 
[V:4] z8 | 
[V:1] A4G4- | 
[V:2] c8 | 
[V:3] z8 | 
[V:4] z8 | 
[V:1] G4c4 | 
[V:2] e8 | 
[V:3] z8 | 
[V:4] z8 | 
[V:1] B4A4- | 
[V:2] d6c2 | 
[V:3] z8 | 
[V:4] z8 | 
[V:1] A2G2G4 | 
[V:2] B4c4 | 
[V:3] z8 | 
[V:4] z8 | 
[V:1] F4D4- | 
[V:2] d8 | 
[V:3] z8 | 
[V:4] z8 | 
[V:1] D4E4 | 
[V:2] B4c4 | 
[V:3] z8 | 
[V:4] z8 | 
[V:1] F4D4- | 
[V:2] d6cd | 
[V:3] z8 | 
[V:4] z8 | 
[V:1] D4G4- | 
[V:2] B6cd | 
[V:3] z8 | 
[V:4] z8 | 
[V:1] G4C4 | 
[V:2] e6d2 | 
[V:3] z8 | 
[V:4] z8 | 
[V:1] G8- | 
[V:2] B4c4 | 
[V:3] z8 | 
[V:4] z8 | 
[V:1] G4A4 | 
[V:2] e4d4 | 
[V:3] z8 | 
[V:4] z8 | 
[V:1] B4G4- | 
[V:2] B4c4 | 
[V:3] z8 | 
[V:4] z8 | 
[V:1] G2E2^F4 | 
[V:2] A8 | 
[V:3] z8 | 
[V:4] z8 | 
[V:1] G6F2 | 
[V:2] G8 | 
[V:3] G8- | 
[V:4] z8 | 
[V:1] D8- | 
[V:2] B8 | 
[V:3] G8 | 
[V:4] z8 | 
[V:1] D4F4- | 
[V:2] z4A4- | 
[V:3] D8- | 
[V:4] z8 | 
[V:1] F4E4 | 
[V:2] A8- | 
[V:3] D4C4 | 
[V:4] z8 | 
[V:1] C4D4- | 
[V:2] A4B4 | 
[V:3] F6G2 | 
[V:4] z8 | 
[V:1] D4E4 | 
[V:2] G4c4- | 
[V:3] _B4A4 | 
[V:4] z8 | 
[V:1] F4D4- | 
[V:2] c4B4 | 
[V:3] F4G4 | 
[V:4] z8 | 
[V:1] D4^C4 | 
[V:2] G8 | 
[V:3] E8 | 
[V:4] z8 | 
[V:1] D8 | 
[V:2] A8 | 
[V:3] D8- | 
[V:4] z8 | 
[V:1] z8 | 
[V:2] B8 | 
[V:3] D4G4- | 
[V:4] z8 | 
[V:1] D8- | 
[V:2] A8 | 
[V:3] G4^F4 | 
[V:4] z8 | 
[V:1] D4G4- | 
[V:2] d8 | 
[V:3] G8 | 
[V:4] z8 | 
[V:1] G4^F4 | 
[V:2] c8 | 
[V:3] z8 | 
[V:4] A,8 | 
[V:1] G8 | 
[V:2] B4G4 | 
[V:3] d8- | 
[V:4] G,6F,E, | 
[V:1] z4F4 | 
[V:2] A4B4 | 
[V:3] d8 | 
[V:4] D,8 | 
[V:1] E4G4- | 
[V:2] c8- | 
[V:3] e8- | 
[V:4] C,8 | 
[V:1] G4A4 | 
[V:2] c8 | 
[V:3] e8- | 
[V:4] E,6F,2 | 
[V:1] c8 | 
[V:2] z4A4 | 
[V:3] e8 | 
[V:4] A,8 | 
[V:1] d8 | 
[V:2] B8 | 
[V:3] d8- | 
[V:4] z4G,4- | 
[V:1] z4G4- | 
[V:2] G8 | 
[V:3] d8 | 
[V:4] G,4_B,4- | 
[V:1] G4F4 | 
[V:2] d4c4 | 
[V:3] z8 | 
[V:4] B,4A,4 | 
[V:1] G8 | 
[V:2] e8 | 
[V:3] B8 | 
[V:4] G,8 | 
[V:1] A4c4- | 
[V:2] f8 | 
[V:3] c8- | 
[V:4] F,8 | 
[V:1] c2B2A4- | 
[V:2] e8- | 
[V:3] c8 | 
[V:4] A,4C4- | 
[V:1] A4G4- | 
[V:2] e4d4 | 
[V:3] z8 | 
[V:4] C4B,4 | 
[V:1] G2E2F4 | 
[V:2] c8 | 
[V:3] z4c4- | 
[V:4] A,8 | 
[V:1] G8 | 
[V:2] z4d4 | 
[V:3] c4B4 | 
[V:4] G,8 | 
[V:1] A8 | 
[V:2] D8 | 
[V:3] A8 | 
[V:4] F,8 | 
[V:1] B8 | 
[V:2] d8 | 
[V:3] G8- | 
[V:4] z4G,4 | 
[V:1] G8 | 
[V:2] e8 | 
[V:3] G8 | 
[V:4] E,4C,4 | 
[V:1] F4A4- | 
[V:2] d6c2 | 
[V:3] z4D4 | 
[V:4] D,8 | 
[V:1] A4F4 | 
[V:2] A8 | 
[V:3] D8 | 
[V:4] z8 | 
[V:1] E4C4- | 
[V:2] G8 | 
[V:3] E8 | 
[V:4] z8 | 
[V:1] C4F4- | 
[V:2] F4c4- | 
[V:3] A8- | 
[V:4] z8 | 
[V:1] F4E4- | 
[V:2] c4B4- | 
[V:3] A4G4- | 
[V:4] z8 | 
[V:1] E2D2D4- | 
[V:2] B4A4- | 
[V:3] G4F4 | 
[V:4] z4D,4- | 
[V:1] D4E4 | 
[V:2] A2F2G4 | 
[V:3] E8 | 
[V:4] D,4C,4 | 
[V:1] F4G4 | 
[V:2] _B6AG | 
[V:3] D8 | 
[V:4] _B,,8 | 
[V:1] A8 | 
[V:2] F4E2F2 | 
[V:3] z8 | 
[V:4] A,,8 | 
[V:1] B8- | 
[V:2] G6F2 | 
[V:3] G8- | 
[V:4] G,,8- | 
[V:1] B4G4- | 
[V:2] E4D4 | 
[V:3] G8 | 
[V:4] G,,8 | 
[V:1] G4D4 | 
[V:2] z4d4 | 
[V:3] B8- | 
[V:4] G,8- | 
[V:1] G8 | 
[V:2] d4e4 | 
[V:3] B8 | 
[V:4] G,8 | 
[V:1] A8 | 
[V:2] f8- | 
[V:3] c8- | 
[V:4] F,8- | 
[V:1] z4A4 | 
[V:2] f8 | 
[V:3] c8 | 
[V:4] F,8 | 
[V:1] G4c4- | 
[V:2] g8 | 
[V:3] e8- | 
[V:4] E,8 | 
[V:1] c2B2c4 | 
[V:2] z8 | 
[V:3] e8 | 
[V:4] A,8 | 
[V:1] d4B4- | 
[V:2] g8 | 
[V:3] d8 | 
[V:4] B,4G,4- | 
[V:1] B4A4- | 
[V:2] e4f4 | 
[V:3] z4d4 | 
[V:4] G,4F,4 | 
[V:1] A2G2G4- | 
[V:2] d8 | 
[V:3] B4G4 | 
[V:4] G,8 | 
[V:1] G4^F4 | 
[V:2] z4d4 | 
[V:3] A8 | 
[V:4] D,8 | 
[V:1] G8- | 
[V:2] B6c2 | 
[V:3] G8- | 
[V:4] G,,8- | 
[V:1] G8- | 
[V:2] e8 | 
[V:3] G8- | 
[V:4] G,,8 | 
[V:1] G8 ||  
[V:2] d8 ||  
[V:3] G8 ||  
[V:4] G,8 ||  
[V:1] [M:3/1]G6F2E3D | 
[V:2] [M:3/1]d8g4 | 
[V:3] [M:3/1]G12 | 
[V:4] [M:3/1]G,8B,4 | 
[V:1] D4G8 | 
[V:2] g6f2d4 | 
[V:3] B12 | 
[V:4] B,2D4C2B,4 | 
[V:1] A4c6BA | 
[V:2] e8f4 | 
[V:3] c12 | 
[V:4] A,6G,2F,4 | 
[V:1] G4z2A2G2E2 | 
[V:2] z2g2e2c6 | 
[V:3] e12 | 
[V:4] E,4C,8 | 
[V:1] F2A2B2d3cA2 | 
[V:2] B2A2d3cA4 | 
[V:3] d4B2A4d2- | 
[V:4] D,12 | 
[V:1] c2B3GG3E^F2 | 
[V:2] A2G4B2A2c2 | 
[V:3] dcd2G4A4 | 
[V:4] z4z2D4C2 | 
[V:1] G4B4c4 | 
[V:2] B2G2z2g4f2 | 
[V:3] G8z4 | 
[V:4] E2D2G,4A,4 | 
[V:1] d2e4c4B2 | 
[V:2] a2g2c4d4 | 
[V:3] z12 | 
[V:4] F,2C4A,2G,4 | 
[V:1] c4G2A3GE2- | 
[V:2] g2a2g2e6 | 
[V:3] c12- | 
[V:4] C,12- | 
[V:1] EFG2C4E4 | 
[V:2] c2e3fg4e2- | 
[V:3] c12- | 
[V:4] C,12- | 
[V:1] G6A3GE2 | 
[V:2] e6c2A2c2 | 
[V:3] c12 | 
[V:4] C,12 | 
[V:1] D8G4 | 
[V:2] G8z4 | 
[V:3] B12- | 
[V:4] z2G,,4G,4E,2 | 
[V:1] F4E2C4c2 | 
[V:2] d4e4c3d | 
[V:3] B4c4A4 | 
[V:4] D,4C,4F,4 | 
[V:1] B2A4G4^F2 | 
[V:2] e2f4d4c2 | 
[V:3] z2d2c2B2A4 | 
[V:4] G,2D,2F,2G,2A,2C2 | 
[V:1] G8z4 | 
[V:2] d4z4z4 | 
[V:3] G4z2G6- | 
[V:4] B,2CDE3DC2B,2 | 
[V:1] z12 | 
[V:2] z12 | 
[V:3] G2F2G2A4G2- | 
[V:4] A,4G,4F,2G,E,- | 
[V:1] z12 | 
[V:2] z12 | 
[V:3] GED2G3F/E/D4 | 
[V:4] E,D,/C,/B,,2C,G,,2A,,B,,C,D,B,, | 
[V:1] z12 | 
[V:2] z12 | 
[V:3] C8z4 | 
[V:4] C,8z4 | 
[V:1] z12 | 
[V:2] E3FG3AF4 | 
[V:3] G6B6 | 
[V:4] C,3D,E,3F,D,4 | 
[V:1] E3FG4c4 | 
[V:2] G4c4z2c2 | 
[V:3] c6e6 | 
[V:4] C,8A,3E, | 
[V:1] B2A4G3EF2 | 
[V:2] d2f3ed2z2A2 | 
[V:3] d4c2B2A4 | 
[V:4] G,2F,4G,2A,2F,2 | 
[V:1] E2C2F4E4 | 
[V:2] B2c2d4G2c2- | 
[V:3] G2c4B2c2A2- | 
[V:4] G,2E,2D,4C,4 | 
[V:1] C2D4C4B,2 | 
[V:2] c2B2A2G4F2 | 
[V:3] A2G2F2E2D4 | 
[V:4] z12 | 
[V:1] C2E4G2F4 | 
[V:2] G8z4 | 
[V:3] C4z2c4B2 | 
[V:4] C,4E,4D,4 | 
[V:1] E2F2G4A2B2 | 
[V:2] A4B2G2c2d2 | 
[V:3] c4d4z2G2- | 
[V:4] z2A,2G,2B,2A,2G,2 | 
[V:1] c4B2G2A4 | 
[V:2] e2f2d2c2d4 | 
[V:3] G2F2G2E2D4 | 
[V:4] A,4z2G,2F,4 | 
[V:1] z2_B4A4E2 | 
[V:2] z4f4e4 | 
[V:3] d8c4 | 
[V:4] G,4D,4A,4 | 
[V:1] G4F2E4D2 | 
[V:2] d4z4c3A | 
[V:3] z2G2D2C2F4 | 
[V:4] _B,4A,8 | 
[V:1] E4F2G3AB2 | 
[V:2] B2c2d2e4d2- | 
[V:3] E4D2G6- | 
[V:4] G,4F,2E,2C,2B,,2 | 
[V:1] c4B2d4B2 | 
[V:2] dBc2d4B2G2- | 
[V:3] G2F2G4d2e2- | 
[V:4] A,,4G,,8- | 
[V:1] G3AB2G2z2F2 | 
[V:2] GAB2G4c4 | 
[V:3] e2d2B3cA4 | 
[V:4] G,,8z4 | 
[V:1] G3Ac4B2A2 | 
[V:2] d4g2f3ed2- | 
[V:3] G3DE2A3GF2 | 
[V:4] z4z4z2D,2 | 
[V:1] G3EFGA2B2G2- | 
[V:2] dBc2d4e4 | 
[V:3] E4D4G3A | 
[V:4] E,4F,4z2G,2- | 
[V:1] G2A2B2c4d2 | 
[V:2] e2f2g2a4g2- | 
[V:3] B2c2e6d2- | 
[V:4] G,2F,2E,2A,4B,2 | 
[V:1] B2A3GG4^F2 | 
[V:2] g2e2d4z2d2 | 
[V:3] d2c2B4A4 | 
[V:4] G,2C,2G,4D,4 | 
[V:1] G12 |]  
[V:2] B3ce4d4 |]  
[V:3] G12 |]  
[V:4] G,,12 |]  



